static/img/mobile/button-floating-action-dark.svg

<svg width="68" height="60" viewBox="0 0 68 60" fill="none" xmlns="http://www.w3.org/2000/svg">
<g filter="url(#filter0_d_480_103581)">
<rect x="6" y="3" width="56" height="48" rx="24" fill="#171C1E" shape-rendering="crispEdges"/>
<g clip-path="url(#clip0_480_103581)">
<path d="M41.31 26.9798C41.31 26.6598 41.28 26.3498 41.24 26.0398L42.91 24.6998C43.3 24.3898 43.4 23.8398 43.15 23.4198L42.4 22.1398L41.66 20.8498C41.41 20.4198 40.89 20.2398 40.43 20.4198L38.46 21.1898C37.96 20.7998 37.4 20.4698 36.81 20.2198L36.49 18.1498C36.42 17.6598 35.99 17.2998 35.5 17.2998H34.01H32.52C32.02 17.2998 31.6 17.6598 31.53 18.1498L31.22 20.1998C30.61 20.4498 30.04 20.7798 29.53 21.1798L27.6 20.4198C27.14 20.2398 26.61 20.4198 26.37 20.8498L25.63 22.1398L24.88 23.4198C24.63 23.8498 24.73 24.3898 25.12 24.6998L26.74 25.9998C26.7 26.3198 26.67 26.6498 26.67 26.9798C26.67 27.3098 26.7 27.6598 26.75 27.9898L25.13 29.2898C24.74 29.5998 24.64 30.1498 24.89 30.5698L25.64 31.8498L26.38 33.1398C26.63 33.5698 27.15 33.7498 27.61 33.5698L29.57 32.7998C30.08 33.1798 30.63 33.5098 31.23 33.7498L31.55 35.8398C31.62 36.3298 32.05 36.6898 32.54 36.6898H34.03H35.52C36.02 36.6898 36.44 36.3298 36.51 35.8398L36.83 33.7298C37.41 33.4898 37.95 33.1598 38.45 32.7898L40.45 33.5698C40.91 33.7498 41.44 33.5698 41.68 33.1398L42.42 31.8498L43.17 30.5698C43.42 30.1398 43.32 29.5998 42.93 29.2898L41.26 27.9498C41.3 27.6298 41.33 27.3098 41.33 26.9798H41.31ZM34.69 30.4398C32.22 30.9098 30.1 28.7898 30.57 26.3198C30.83 24.9498 31.95 23.8298 33.32 23.5698C35.79 23.0998 37.91 25.2198 37.44 27.6898C37.18 29.0598 36.06 30.1798 34.69 30.4398Z" fill="white"/>
</g>
</g>
<defs>
<filter id="filter0_d_480_103581" x="0" y="0" width="68" height="60" filterUnits="userSpaceOnUse" color-interpolation-filters="sRGB">
<feFlood flood-opacity="0" result="BackgroundImageFix"/>
<feColorMatrix in="SourceAlpha" type="matrix" values="0 0 0 0 0 0 0 0 0 0 0 0 0 0 0 0 0 0 127 0" result="hardAlpha"/>
<feOffset dy="3"/>
<feGaussianBlur stdDeviation="3"/>
<feComposite in2="hardAlpha" operator="out"/>
<feColorMatrix type="matrix" values="0 0 0 0 0 0 0 0 0 0 0 0 0 0 0 0 0 0 0.25 0"/>
<feBlend mode="normal" in2="BackgroundImageFix" result="effect1_dropShadow_480_103581"/>
<feBlend mode="normal" in="SourceGraphic" in2="effect1_dropShadow_480_103581" result="shape"/>
</filter>
<clipPath id="clip0_480_103581">
<rect width="24" height="24" fill="white" transform="translate(22 15)"/>
</clipPath>
</defs>
</svg>

<svg fill="none" height="60" viewBox="0 0 68 60" width="68" xmlns="http://www.w3.org/2000/svg" xmlns:xlink="http://www.w3.org/1999/xlink"><filter id="a" color-interpolation-filters="sRGB" filterUnits="userSpaceOnUse" height="60" width="68" x="0" y="0"><feFlood flood-opacity="0" result="BackgroundImageFix"/><feColorMatrix in="SourceAlpha" result="hardAlpha" type="matrix" values="0 0 0 0 0 0 0 0 0 0 0 0 0 0 0 0 0 0 127 0"/><feOffset dy="3"/><feGaussianBlur stdDeviation="3"/><feComposite in2="hardAlpha" operator="out"/><feColorMatrix type="matrix" values="0 0 0 0 0 0 0 0 0 0 0 0 0 0 0 0 0 0 0.25 0"/><feBlend in2="BackgroundImageFix" mode="normal" result="effect1_dropShadow_480_103581"/><feBlend in="SourceGraphic" in2="effect1_dropShadow_480_103581" mode="normal" result="shape"/></filter><clipPath id="b"><path d="m22 15h24v24h-24z"/></clipPath><g filter="url(#a)"><rect fill="#171c1e" height="48" rx="24" shape-rendering="crispEdges" width="56" x="6" y="3"/><g clip-path="url(#b)"><path d="m41.31 26.9798c0-.32-.03-.63-.07-.94l1.67-1.34c.39-.31.49-.86.24-1.28l-.75-1.28-.74-1.29c-.25-.43-.77-.61-1.23-.43l-1.97.77c-.5-.39-1.06-.72-1.65-.97l-.32-2.07c-.07-.49-.5-.85-.99-.85h-1.49-1.49c-.5 0-.92.36-.99.85l-.31 2.05c-.61.25-1.18.58-1.69.98l-1.93-.76c-.46-.18-.99 0-1.23.43l-.74 1.29-.75 1.28c-.25.43-.15.97.24 1.28l1.62 1.3c-.04.32-.07.65-.07.98s.03.68.08 1.01l-1.62 1.3c-.39.31-.49.86-.24 1.28l.75 1.28.74 1.29c.25.43.77.61 1.23.43l1.96-.77c.51.38 1.06.71 1.66.95l.32 2.09c.07.49.5.85.99.85h1.49 1.49c.5 0 .92-.36.99-.85l.32-2.11c.58-.24 1.12-.57 1.62-.94l2 .78c.46.18.99 0 1.23-.43l.74-1.29.75-1.28c.25-.43.15-.97-.24-1.28l-1.67-1.34c.04-.32.07-.64.07-.97zm-6.62 3.46c-2.47.47-4.59-1.65-4.12-4.12.26-1.37 1.38-2.49 2.75-2.75 2.47-.47 4.59 1.65 4.12 4.12-.26 1.37-1.38 2.49-2.75 2.75z" fill="#fff"/></g></g></svg>
